X: 39478
T: Tartan Quilt, The
R: jig
M: 6/8
K: Dmajor
DFA GEA|DED DFA|dfe dBA|BEE EFE|
DFA GEA|DED DFG|AAA GEA|DED D2A:|
|:dfe dBA|def gfe|dfe dBA|BEE EFE|
DFA GEA|DED DFG|AAA GEA|DED D3:|

